X: 1
T: Coast Of Austria, The
M: 4/4
L: 1/8
R: reel
K: Amaj
B |:ce ~e2 fece | ~f3a eAcA | ce ~e2 fece | faag a2 ab |
 &quot;See Var #1&quot; c'bac' bafa| ~f3e f2 af|&quot;See Var #2&quot; eAce ~f3 a|ecBc A2 AB:|
|:c2 Bc AF ~F2 | EcEF A2 AB| ce ~e2 fece | faag a2 ab |
 c'bac' bafa| ~f3e f2 af|eAce ~f3 a|ecBc A2 AB:| 
||&quot;Var #1&quot; c'2 c'2  bafa ||&quot;Var #2&quot; eAcef2 f2||
